16x16/apps/usb.svg

<svg xmlns="http://www.w3.org/2000/svg" width="16" height="16" version="1.1">
 <rect style="fill:#2d48a6" width="15" height="15" x="1" y="1" rx="4.5" ry="4.5"/>
 <path style="fill:#f4f4f7" d="M 8.5 3.0625 L 6.6640625 6 L 8 6 L 8 10 L 5.5 10 C 5.1226956 10.000015 5.1076193 9.9067368 5.0527344 9.7890625 C 4.9978495 9.6713882 4.9980469 9.5332031 4.9980469 9.5332031 A 0.50005 0.50005 0 0 0 5 9.5 L 5 8.9121094 A 1.5 1.5 0 0 0 6 7.5 A 1.5 1.5 0 0 0 4.5 6 A 1.5 1.5 0 0 0 3 7.5 A 1.5 1.5 0 0 0 4 8.9121094 L 4 9.5 L 4.0019531 9.4667969 C 4.0019531 9.4667969 3.9681311 9.8285435 4.1464844 10.210938 C 4.3248411 10.59333 4.8102584 11.000028 5.5 11 L 8 11 L 8 12.087891 A 1.5 1.5 0 0 0 7 13.5 A 1.5 1.5 0 0 0 8.5 15 A 1.5 1.5 0 0 0 10 13.5 A 1.5 1.5 0 0 0 9 12.087891 L 9 11 L 11.494141 11 C 12.164977 11.009 12.642244 10.599099 12.826172 10.226562 C 13.010099 9.8540271 13 9.4960937 13 9.4960938 L 13 9 C 13.554 9 14 8.554 14 8 L 14 7 C 14 6.446 13.554 6 13 6 L 12 6 C 11.446 6 11 6.446 11 7 L 11 8 C 11 8.554 11.446 9 12 9 L 12 9.5 A 0.50005 0.50005 0 0 0 12 9.5039062 C 12 9.5039062 11.994298 9.6524245 11.929688 9.7832031 C 11.865117 9.9139779 11.841042 10.004497 11.505859 10 A 0.50005 0.50005 0 0 0 11.5 10 L 9 10 L 9 6 L 10.335938 6 L 8.5 3.0625 z"/>
</svg>

<svg xmlns="http://www.w3.org/2000/svg" width="16" height="16"><rect style="fill:#2d48a6" width="15" height="15" x="1" y="1" rx="4.5" ry="4.5"/><path style="fill:#f4f4f7" d="M8.5 3.063 6.664 6H8v4H5.5c-.377 0-.392-.093-.447-.21-.055-.119-.055-.257-.055-.257A.5.5 0 0 0 5 9.5v-.588A1.5 1.5 0 0 0 6 7.5 1.5 1.5 0 0 0 4.5 6 1.5 1.5 0 0 0 3 7.5a1.5 1.5 0 0 0 1 1.412V9.5l.002-.033s-.034.362.144.744c.179.382.664.789 1.354.789H8v1.088A1.5 1.5 0 0 0 7 13.5 1.5 1.5 0 0 0 8.5 15a1.5 1.5 0 0 0 1.5-1.5 1.5 1.5 0 0 0-1-1.412V11h2.494c.671.009 1.148-.4 1.332-.773.184-.373.174-.73.174-.73V9c.554 0 1-.446 1-1V7c0-.554-.446-1-1-1h-1c-.554 0-1 .446-1 1v1c0 .554.446 1 1 1v.5a.5.5 0 0 0 0 .004s-.006.148-.07.28c-.065.13-.089.22-.424.216a.5.5 0 0 0-.006 0H9V6h1.336L8.5 3.062z"/></svg>
